dist/icons/clipboard.svg

<?xml version="1.0" encoding="utf-8"?>
<!-- Generated by IcoMoon.io -->
<!DOCTYPE svg PUBLIC "-//W3C//DTD SVG 1.1//EN" "http://www.w3.org/Graphics/SVG/1.1/DTD/svg11.dtd">
<svg version="1.1" xmlns="http://www.w3.org/2000/svg" xmlns:xlink="http://www.w3.org/1999/xlink" width="32" height="32" viewBox="0 0 32 32">
<path d="M26 4v0 24h-20v-24h-4v24c0 2.2 1.8 4 4 4h20c2.2 0 4-1.8 4-4v-24h-4zM20 4v-2c0-1.1-0.9-2-2-2h-4c-1.1 0-2 0.9-2 2v2h-4v4h16v-4h-4zM18 4h-4v-2h4v2z"></path>
<path d="M13.5 24.7l-5.4-7.1 2.4-2.5 3 3.8 9.5-7.7 1.2 1.2-10.7 12.3z"></path>
</svg>

<svg xmlns="http://www.w3.org/2000/svg" width="32" height="32" viewBox="0 0 32 32"><path d="M26 4v24H6V4H2v24c0 2.2 1.8 4 4 4h20c2.2 0 4-1.8 4-4V4h-4zm-6 0V2c0-1.1-.9-2-2-2h-4c-1.1 0-2 .9-2 2v2H8v4h16V4h-4zm-2 0h-4V2h4v2z"/><path d="M13.5 24.7l-5.4-7.1 2.4-2.5 3 3.8 9.5-7.7 1.2 1.2-10.7 12.3z"/></svg>
